src/assets/duotone/TrendDown.svg

<svg width="24" height="24" viewBox="0 0 24 24"  xmlns="http://www.w3.org/2000/svg">
<path opacity="0.4" d="M16.19 2H7.81C4.17 2 2 4.17 2 7.81V16.18C2 19.83 4.17 22 7.81 22H16.18C19.82 22 21.99 19.83 21.99 16.19V7.81C22 4.17 19.83 2 16.19 2Z" />
<path d="M16.8802 12.47C16.8802 12.08 16.5702 11.77 16.1802 11.77C15.7902 11.77 15.4802 12.08 15.4802 12.47V12.65L12.7602 9.93004C12.6102 9.78004 12.4102 9.71004 12.2002 9.73004C11.9902 9.75004 11.8002 9.86004 11.6902 10.04L10.6702 11.56L8.31018 9.18004C8.04018 8.91004 7.60018 8.91004 7.32018 9.18004C7.05018 9.45004 7.05018 9.89004 7.32018 10.17L10.3002 13.15C10.4502 13.3 10.6502 13.37 10.8602 13.35C11.0702 13.33 11.2602 13.22 11.3702 13.04L12.3902 11.52L14.5002 13.63H14.3202C13.9302 13.63 13.6202 13.94 13.6202 14.33C13.6202 14.72 13.9302 15.03 14.3202 15.03H16.1802C16.2702 15.03 16.3602 15.01 16.4502 14.98C16.6202 14.91 16.7602 14.77 16.8302 14.6C16.8702 14.51 16.8802 14.42 16.8802 14.33V12.47Z" />
</svg>

<?xml version="1.0" encoding="UTF-8"?>
<svg width="24" height="24" viewBox="0 0 24 24" xmlns="http://www.w3.org/2000/svg">
 <path d="M16.19 2H7.81C4.17 2 2 4.17 2 7.81V16.18C2 19.83 4.17 22 7.81 22H16.18C19.82 22 21.99 19.83 21.99 16.19V7.81C22 4.17 19.83 2 16.19 2Z" opacity=".4"/>
 <path d="m16.88 12.47c0-0.39-0.31-0.7-0.7-0.7s-0.7 0.31-0.7 0.7v0.18l-2.72-2.72c-0.15-0.15-0.35-0.22-0.56-0.2s-0.4 0.13-0.51 0.30996l-1.02 1.52-2.36-2.38c-0.27-0.27-0.71-0.27-0.99 0-0.27 0.27-0.27 0.71 0 0.98996l2.98 2.98c0.15 0.15 0.35 0.22 0.56 0.2s0.4-0.13 0.51-0.31l1.02-1.52 2.11 2.11h-0.18c-0.39 0-0.7 0.31-0.7 0.7s0.31 0.7 0.7 0.7h1.86c0.09 0 0.18-0.02 0.27-0.05 0.17-0.07 0.31-0.21 0.38-0.38 0.04-0.09 0.05-0.18 0.05-0.27v-1.86z"/>
</svg>
